assets/svg/IconApp.svg

<svg width="1024" height="1024" fill="none" xmlns="http://www.w3.org/2000/svg">
    <path fill="#FF8E1F" d="M.5.5h1023v1023H.5z"/>
    <path stroke="#999" d="M.5.5h1023v1023H.5z"/>
    <path fill-rule="evenodd" clip-rule="evenodd" d="M815.54 454.591c55.332 0 76.268 28.414 86.736 76.269 10.469 47.481 20.189 117.394-14.58 150.668 10.842-46.733-5.608-63.184-64.305-50.098 61.314-47.481 66.922-76.643 44.49-115.151-6.457-11.105-38.066 8.296-68.582 27.025-13.661 8.384-27.102 16.634-37.97 21.952-23.927 11.589-51.593 8.972-51.593 8.972 18.499-19.979 44.139-40.782 65.323-57.97 21.628-17.549 38.611-31.329 38.611-36.618 0-4.486-8.225-23.553-20.936-45.985-12.338 11.216-174.969 16.076-276.66 16.076h-7.478c-102.065 0-264.696-4.86-276.66-16.076C219.225 455.713 211 475.154 211 479.64c0 5.628 17.826 20.118 40.254 38.349 20.784 16.893 45.518 36.999 63.68 56.239 0 0-27.666 2.617-51.593-8.972-11.172-5.41-24.933-13.852-38.839-22.384-30.307-18.594-61.306-37.612-67.713-26.593-22.432 38.135-16.824 67.296 44.49 114.777-58.323-13.085-75.147 3.365-64.305 50.098-35.517-32.9-25.796-102.813-15.328-150.294 10.468-47.855 31.404-76.269 86.736-76.269 0 0 0-7.477-50.097-22.805-50.098-15.329-47.481-40.752 0-40.752 33.675 0 33.499 9.78 33.351 18.001-.061 3.37-.117 6.478 2.166 8.544 7.477 7.103 29.161 11.216 29.161 11.216s35.144-69.539 66.548-83.746C321.29 330.842 406.531 320 508.222 320h7.478c102.065 0 187.306 10.842 218.711 25.049 31.405 14.207 66.548 83.746 66.548 83.746s21.31-4.113 29.161-11.216c2.141-2.034 2.045-5.079 1.94-8.39-.261-8.253-.575-18.155 33.578-18.155 47.854 0 50.098 25.423 0 40.752-50.098 15.328-50.098 22.805-50.098 22.805Zm-303.579-14.954c61.688 0 189.924-2.991 246.003-13.085 13.46-2.244 18.32-19.441 10.095-30.284-13.833-18.319-29.162-34.395-43.742-40.377-41.499-16.824-133.096-23.927-208.617-25.049h-7.478c-75.52 1.122-167.117 7.851-208.616 25.049-14.581 5.982-29.91 21.684-43.743 40.377-8.225 10.843-3.364 28.04 10.095 30.284 55.706 10.094 183.941 13.459 246.003 13.085Zm.001 122.254c35.143-.374 112.159-4.113 124.123-12.712 11.964-8.972 44.116-80.754 44.116-80.754s-34.77 54.21-44.49 66.921c-9.721 12.712-86.363 13.086-123.376 13.086-37.012 0-113.655-.748-123.375-13.086-9.721-12.711-44.49-66.921-44.49-66.921s32.152 71.782 44.116 80.754c11.216 8.599 88.232 13.086 123.376 12.712Zm-3.74 38.508c76.643 0 135.339-8.599 164.127-22.806-41.873 11.59-164.127 10.095-164.127 10.095s-122.254 1.495-164.127-10.095c28.788 14.207 87.485 22.806 164.127 22.806Zm171.979 22.432c20.562 34.022 4.486 57.575-50.472 61.314-52.341 3.365-108.795 3.738-114.777 3.738-7.103 0-75.895-.373-127.862-3.738-55.332-3.739-71.408-27.292-50.472-61.314-44.864 24.301-87.484 23.553-113.655 11.216 6.73 14.207 44.864 41.125 80.755 54.21 35.144 12.712 115.525 13.833 210.86 13.833H515.7c95.709 0 162.631-1.121 197.401-13.833 35.891-13.085 74.025-40.003 80.755-54.21-26.545 11.964-68.792 13.085-113.655-11.216Zm-171.979 9.346c-10.842 0-19.441-8.598-19.441-12.337 0-3.739 8.599-6.73 19.441-6.73 10.843 0 19.441 2.991 19.441 6.73 0 3.739-8.598 12.337-19.441 12.337Z" fill="#fff"/>
</svg>

<svg width="1024" height="1024" viewBox="0 0 1024 1024" fill="none" xmlns="http://www.w3.org/2000/svg">
<rect x="0.5" y="0.5" width="1023" height="1023" fill="#FF8E1F"/>
<rect x="0.5" y="0.5" width="1023" height="1023" stroke="#999999"/>
<path fill-rule="evenodd" clip-rule="evenodd" d="M815.54 454.591C870.872 454.591 891.808 483.005 902.276 530.86C912.745 578.341 922.465 648.254 887.696 681.528C898.538 634.795 882.088 618.344 823.391 631.43C884.705 583.949 890.313 554.787 867.881 516.279C861.424 505.174 829.815 524.575 799.299 543.304C785.638 551.688 772.197 559.938 761.329 565.256C737.402 576.845 709.736 574.228 709.736 574.228C728.235 554.249 753.875 533.446 775.059 516.258C796.687 498.709 813.67 484.929 813.67 479.64C813.67 475.154 805.445 456.087 792.734 433.655C780.396 444.871 617.765 449.731 516.074 449.731H512.335H508.596C406.531 449.731 243.9 444.871 231.936 433.655C219.225 455.713 211 475.154 211 479.64C211 485.268 228.826 499.758 251.254 517.989C272.038 534.882 296.772 554.988 314.934 574.228C314.934 574.228 287.268 576.845 263.341 565.256C252.169 559.846 238.408 551.404 224.502 542.872C194.195 524.278 163.196 505.26 156.789 516.279C134.357 554.414 139.965 583.575 201.279 631.056C142.956 617.971 126.132 634.421 136.974 681.154C101.457 648.254 111.178 578.341 121.646 530.86C132.114 483.005 153.05 454.591 208.382 454.591C208.382 454.591 208.382 447.114 158.285 431.786C108.187 416.457 110.804 391.034 158.285 391.034C191.96 391.034 191.784 400.814 191.636 409.035C191.575 412.405 191.519 415.513 193.802 417.579C201.279 424.682 222.963 428.795 222.963 428.795C222.963 428.795 258.107 359.256 289.511 345.049C321.29 330.842 406.531 320 508.222 320H511.961H515.7C617.765 320 703.006 330.842 734.411 345.049C765.816 359.256 800.959 428.795 800.959 428.795C800.959 428.795 822.269 424.682 830.12 417.579C832.261 415.545 832.165 412.5 832.06 409.189C831.799 400.936 831.485 391.034 865.638 391.034C913.492 391.034 915.736 416.457 865.638 431.786C815.54 447.114 815.54 454.591 815.54 454.591ZM511.961 439.637C573.649 439.637 701.885 436.646 757.964 426.552C771.424 424.308 776.284 407.111 768.059 396.268C754.226 377.949 738.897 361.873 724.317 355.891C682.818 339.067 591.221 331.964 515.7 330.842H511.961H508.222C432.702 331.964 341.105 338.693 299.606 355.891C285.025 361.873 269.696 377.575 255.863 396.268C247.638 407.111 252.499 424.308 265.958 426.552C321.664 436.646 449.899 440.011 511.961 439.637ZM511.962 561.891C547.105 561.517 624.121 557.778 636.085 549.179C648.049 540.207 680.201 468.425 680.201 468.425C680.201 468.425 645.431 522.635 635.711 535.346C625.99 548.058 549.348 548.432 512.335 548.432C475.323 548.432 398.68 547.684 388.96 535.346C379.239 522.635 344.47 468.425 344.47 468.425C344.47 468.425 376.622 540.207 388.586 549.179C399.802 557.778 476.818 562.265 511.962 561.891ZM508.222 600.399C584.865 600.399 643.561 591.8 672.349 577.593C630.476 589.183 508.222 587.688 508.222 587.688C508.222 587.688 385.968 589.183 344.095 577.593C372.883 591.8 431.58 600.399 508.222 600.399ZM680.201 622.831C700.763 656.853 684.687 680.406 629.729 684.145C577.388 687.51 520.934 687.883 514.952 687.883C507.849 687.883 439.057 687.51 387.09 684.145C331.758 680.406 315.682 656.853 336.618 622.831C291.754 647.132 249.134 646.384 222.963 634.047C229.693 648.254 267.827 675.172 303.718 688.257C338.862 700.969 419.243 702.09 514.578 702.09H514.952H515.7C611.409 702.09 678.331 700.969 713.101 688.257C748.992 675.172 787.126 648.254 793.856 634.047C767.311 646.011 725.064 647.132 680.201 622.831ZM508.222 632.177C497.38 632.177 488.781 623.579 488.781 619.84C488.781 616.101 497.38 613.11 508.222 613.11C519.065 613.11 527.663 616.101 527.663 619.84C527.663 623.579 519.065 632.177 508.222 632.177Z" fill="white"/>
</svg>
